svgs/wps_office.svg

<svg width="192" height="192" viewBox="0 0 192 192" fill="none" xmlns="http://www.w3.org/2000/svg"><path d="M22 58v-6a6 6 0 0 0-5.272 8.865L22 58Zm50 92-5.272 2.865a6 6 0 0 0 10.544 0L72 150Zm-2-92 5.272-2.865A6 6 0 0 0 70 52v6Zm9.946 30.865a6 6 0 0 0 10.543-5.73l-10.543 5.73Zm47.326-28a6 6 0 0 0-10.544-5.73l10.544 5.73ZM170 58l5.272 2.865A6 6 0 0 0 170 52v6Zm-50 92-5.272 2.865a6 6 0 0 0 10.544 0L120 150Zm22-98a6 6 0 1 0 0 12V52Zm-29.772 71.135a6 6 0 1 0-10.543 5.73l10.543-5.73Zm-95.5-62.27 50 92 10.544-5.73-50-92-10.544 5.73ZM22 64h48V52H22v12Zm42.728-3.135 15.218 28 10.543-5.73-15.217-28-10.544 5.73Zm52-5.73-50 92 10.544 5.73 50-92-10.544-5.73Zm48 0-50 92 10.544 5.73 50-92-10.544-5.73ZM170 52h-28v12h28V52Zm-68.315 76.865 13.043 24 10.544-5.73-13.044-24-10.543 5.73Z" fill="#000"/></svg>

<?xml version="1.0" encoding="UTF-8" standalone="no"?><svg xmlns:android="http://schemas.android.com/apk/res/android" height="192" width="192" xmlns="http://www.w3.org/2000/svg">
  <path d="M22,58V52C19.884,52 17.924,53.115 16.843,54.933C15.761,56.752 15.718,59.006 16.728,60.865L22,58ZM72,150L66.728,152.865C67.778,154.797 69.801,156 72,156C74.199,156 76.222,154.797 77.272,152.865L72,150ZM70,58L75.272,55.135C74.222,53.203 72.199,52 70,52V58ZM79.946,88.865C81.528,91.777 85.171,92.854 88.082,91.272C90.994,89.689 92.072,86.046 90.489,83.135L79.946,88.865ZM127.272,60.865C128.854,57.954 127.777,54.311 124.865,52.728C121.954,51.146 118.311,52.223 116.728,55.135L127.272,60.865ZM170,58L175.272,60.865C176.282,59.006 176.239,56.752 175.157,54.933C174.076,53.115 172.116,52 170,52V58ZM120,150L114.728,152.865C115.778,154.797 117.801,156 120,156C122.199,156 124.222,154.797 125.272,152.865L120,150ZM142,52C138.686,52 136,54.686 136,58C136,61.314 138.686,64 142,64V52ZM112.228,123.135C110.646,120.223 107.003,119.146 104.091,120.728C101.18,122.311 100.102,125.954 101.685,128.865L112.228,123.135ZM16.728,60.865L66.728,152.865L77.272,147.135L27.272,55.135L16.728,60.865ZM22,64H70V52H22V64ZM64.728,60.865L79.946,88.865L90.489,83.135L75.272,55.135L64.728,60.865ZM116.728,55.135L66.728,147.135L77.272,152.865L127.272,60.865L116.728,55.135ZM164.728,55.135L114.728,147.135L125.272,152.865L175.272,60.865L164.728,55.135ZM170,52H142V64H170V52ZM101.685,128.865L114.728,152.865L125.272,147.135L112.228,123.135L101.685,128.865Z" fill="#000000"/>
</svg>
